images/logo-mono.svg

<svg height="21pt" viewBox="0 0 21 21" width="21pt" xmlns="http://www.w3.org/2000/svg"><g fill="#fff" stroke="#f2f2f2" stroke-opacity=".401961"><path d="m85.797762 55.954571 25.047619 14.52381-24.845238 14.797619-25.130953-14.75zm0 0" transform="matrix(.328125 0 0 .328125 -17.929734 -17.399156)"/><path d="m99.249193 79.498232 24.946164 13.969957-24.882387 14.283365-24.541204-13.887594zm0 0" transform="matrix(.164062 -.284165 .284165 .164062 -28.291637 26.230759)"/><path d="m72.674259 79.616638 24.849137 14.12672-24.577176 14.664135-25.070741-14.433367zm0 0" transform="matrix(.164062 .284164 -.284164 .164062 20.705004 -22.658858)"/></g></svg>

<?xml version="1.0" encoding="UTF-8"?>
<svg xmlns="http://www.w3.org/2000/svg" xmlns:xlink="http://www.w3.org/1999/xlink" width="21pt" height="21pt" viewBox="0 0 21 21" version="1.1">
<g id="surface1">
<path style="fill-rule:nonzero;fill:rgb(100%,100%,100%);fill-opacity:1;stroke-width:1;stroke-linecap:butt;stroke-linejoin:miter;stroke:rgb(94.901961%,94.901961%,94.901961%);stroke-opacity:0.401961;stroke-miterlimit:4;" d="M 85.797762 55.954571 L 110.845381 70.478381 L 86.000143 85.276 L 60.86919 70.526 Z M 85.797762 55.954571 " transform="matrix(0.328125,0,0,0.328125,-17.929734,-17.399156)"/>
<path style="fill-rule:nonzero;fill:rgb(100%,100%,100%);fill-opacity:1;stroke-width:1;stroke-linecap:butt;stroke-linejoin:miter;stroke:rgb(94.901961%,94.901961%,94.901961%);stroke-opacity:0.401961;stroke-miterlimit:4;" d="M 99.249193 79.498232 L 124.195357 93.468189 L 99.31297 107.751554 L 74.771766 93.86396 Z M 99.249193 79.498232 " transform="matrix(0.164062,-0.284165,0.284165,0.164062,-28.291637,26.230759)"/>
<path style="fill-rule:nonzero;fill:rgb(100%,100%,100%);fill-opacity:1;stroke-width:1;stroke-linecap:butt;stroke-linejoin:miter;stroke:rgb(94.901961%,94.901961%,94.901961%);stroke-opacity:0.401961;stroke-miterlimit:4;" d="M 72.674259 79.616638 L 97.523396 93.743358 L 72.94622 108.407493 L 47.875479 93.974126 Z M 72.674259 79.616638 " transform="matrix(0.164062,0.284164,-0.284164,0.164062,20.705004,-22.658858)"/>
</g>
</svg>
